X: 106
T: La Villette
%R: jig
B: Stewart "A Select Collection of Airs, Jigs, Marches and Reels", ca.1784, p.51 #106
F: http://imslp.org/wiki/A_Select_Collection_of_Airs,_Jigs,_Marches_and_Reels_%28Various%29
Z: 2017 John Chambers <jc:trillian.mit.edu>
M: 6/8
L: 1/8
K: G
BcB |\
A2G B2c | d2g B2c | ded dcB | A2G BcB |\
A2G B2c | d2g B2c | ded dcB | A3 :|
|: ABA |\
AGF GFE | FED ABA | AGF TE2D | D3 AGA |\
BAB cdc | BcB cdc |
BcB ABG | d3 DEF |\
DEF DEF | G3 EFG | EFG EFG | A3 c2B |\
A2G AGF | G3 :|

%%sep 1 1 500
%%sep 1 1 500

